X:232
T:Catharsis
C:Amy Knox
N:Tarnscribed by David Peters TablEdited by Mike Stangeland
L:1/8
Q:1/4=130
M:4/4
K:Bb
z8 |: "Gm"DG GF DG GF | DF GA (3BAG "F"Ac | "Gm"DG GF DG GF | DC DF "F"DC B,G, | 
"Gm"DG GF DG GF | DF GA (3BAG "F"Ac | "Gm"dc Bc BA GF |1 D"F"G GF "Gm"G2 G2 :|2 D"F"G GF "Gm"GA Bc | 
|: "Gm"dG Gc GG BG | GA GG GA Bc | "F"dF Fc FF BF | FA FF GA Bc | "Eb"dE Ec EE BE | 
EA EE GA Bc | "Gm"dc Ac BA GF |1 D"F"G GF "Gm"GA Bc :|2 D"F"G GF "Gm"G2 G2 | 
 

